icons/commit-24.svg

<svg xmlns="http://www.w3.org/2000/svg" width="24" height="24" viewBox="0 0 24 24">
  <defs/>
  <path d="M0,11.75 C0,11.336 0.336,11 0.75,11 L5.75,11 C6.164,11 6.5,11.336 6.5,11.75 C6.5,12.164 6.164,12.5 5.75,12.5 L0.75,12.5 C0.336,12.5 0,12.164 0,11.75 Z M17.5,11.75 C17.5,11.336 17.836,11 18.25,11 L23.25,11 C23.664,11 24,11.336 24,11.75 C24,12.164 23.664,12.5 23.25,12.5 L18.25,12.5 C17.836,12.5 17.5,12.164 17.5,11.75 Z"/>
  <path d="M12,17.75 C8.686,17.75 6,15.064 6,11.75 C6,8.436 8.686,5.75 12,5.75 C15.314,5.75 18,8.436 18,11.75 C18,15.064 15.314,17.75 12,17.75 Z M12,16.25 C14.485,16.25 16.5,14.235 16.5,11.75 C16.5,9.265 14.485,7.25 12,7.25 C9.515,7.25 7.5,9.265 7.5,11.75 C7.5,14.235 9.515,16.25 12,16.25 Z"/>
</svg>

<svg xmlns="http://www.w3.org/2000/svg" width="24" height="24" viewBox="0 0 24 24"><path d="M0 11.75A.75.75 0 01.75 11h5a.75.75 0 010 1.5h-5a.75.75 0 01-.75-.75zm17.5 0a.75.75 0 01.75-.75h5a.75.75 0 010 1.5h-5a.75.75 0 01-.75-.75z"/><path d="M12 17.75a6 6 0 110-12 6 6 0 010 12zm0-1.5a4.5 4.5 0 100-9 4.5 4.5 0 000 9z"/></svg>
